assets/flowers/december_center_left.svg

<?xml version="1.0" encoding="UTF-8" standalone="no"?>
<svg
   viewBox="0 0 129 367"
   width="129"
   height="367"
   version="1.1"
   id="svg9"
   sodipodi:docname="december_center_left.svg"
   inkscape:version="1.4.2 (f4327f4, 2025-05-13)"
   xmlns:inkscape="http://www.inkscape.org/namespaces/inkscape"
   xmlns:sodipodi="http://sodipodi.sourceforge.net/DTD/sodipodi-0.dtd"
   xmlns="http://www.w3.org/2000/svg"
   xmlns:svg="http://www.w3.org/2000/svg">
  <defs
     id="defs9" />
  <sodipodi:namedview
     id="namedview9"
     pagecolor="#ffffff"
     bordercolor="#000000"
     borderopacity="0.25"
     inkscape:showpageshadow="2"
     inkscape:pageopacity="0.0"
     inkscape:pagecheckerboard="0"
     inkscape:deskcolor="#d1d1d1"
     inkscape:zoom="6.219457"
     inkscape:cx="51.933794"
     inkscape:cy="48.557294"
     inkscape:window-width="1127"
     inkscape:window-height="1032"
     inkscape:window-x="679"
     inkscape:window-y="94"
     inkscape:window-maximized="0"
     inkscape:current-layer="svg9" />
  <path
     d="m 19,24 c 3.33,3.5 15,14.67 20,21 5,6.33 12.836912,17.479447 15.506912,20.979447"
     fill="none"
     stroke="#000000"
     stroke-width="4.47"
     stroke-linecap="round"
     stroke-linejoin="round"
     id="path1"
     style="stroke-width:3;stroke-dasharray:none"
     sodipodi:nodetypes="csc" />
  <path
     d="M 5,33 C 5.5,32.83 7.83,36.33 8,32 8.17,27.67 5.17,10.67 6,7 c 0.83,-3.67 3.33,2.5 7,3 3.67,0.5 11.83,-1.67 15,0 3.17,1.67 1.67,7.33 4,10 2.33,2.67 8.5,2.33 10,6 1.5,3.67 -0.17,12.67 -1,16 -0.83,3.33 -3.67,3.33 -4,4 -0.33,0.67 2.33,-0.17 2,0 -0.33,0.17 -0.33,0.67 -4,1 -3.67,0.33 -14.67,2.67 -18,1 C 13.67,46.33 16,39.5 15,37 14,34.5 12.5,33.83 11,33 9.5,32.17 6.83,32.17 6,32"
     fill="none"
     stroke="#000000"
     stroke-width="2.00"
     stroke-linecap="round"
     stroke-linejoin="round"
     id="path2"
     style="stroke-width:3;stroke-dasharray:none"
     sodipodi:nodetypes="csssssssssssssc" />
  <path
     d="m 44.163779,51.633894 c 0.658387,-1.288927 0.692146,-1.397804 -0.217142,-2.332759 -1.099079,-1.130103 -1.589284,-0.660129 -2.141518,-0.317532 -0.738484,0.458144 -1.666715,0.360049 -1.872079,1.791324 -0.169407,1.180679 0.323482,1.671614 1.631154,1.941663 0.982835,0.202966 2.257836,-1.380207 2.491123,-0.999584 0.847801,1.383238 7.530852,11.123507 5.943115,8.366867 -1.896424,-3.292584 -4.73502,-3.067189 -6.340605,-1.633131 -1.429017,1.276353 -0.217835,2.53671 1.518231,3.449895 2.566139,1.34981 6.001659,-0.806746 6.039581,-1.322983 0.07584,-1.032473 1.302595,-1.084951 1.019181,-2.239797 -0.606121,-2.469795 -0.782205,-7.022126 2.451246,-7.210989 2.079771,-0.121477 3.748989,1.760715 1.785912,5.940779 -2.045759,4.356122 -4.398867,4.967887 -2.351389,8.334317 1.806744,2.970619 13.206983,16.438673 11.718625,16.482358 -5.55733,0.163114 -12.071964,0.383714 -14.401964,0.713714"
     fill="none"
     stroke="#000000"
     stroke-width="5.06"
     stroke-linecap="round"
     stroke-linejoin="round"
     id="path3"
     style="stroke-width:3;stroke-dasharray:none"
     sodipodi:nodetypes="cssssssssssssssc" />
  <path
     d="m 65.517643,81 c 4.33,6.5 22.488194,33.05849 26.160786,39.80393 C 95.552928,127.92021 95.290672,119.9414 96,116 c 0.848429,-4.71432 2.312357,-15.27646 3,-19 0.584779,-3.166533 1.03034,-1.836835 4.08039,-1.652965 4.29817,0.259112 6.81852,0.358156 9.51765,-2.025464 C 114.50904,91.633951 112.17,83.5 114,80 c 1.83,-3.5 9.5,-5.33 10,-8 0.5,-2.67 -5.67,-5.33 -7,-8 -1.33,-2.67 0.67,-7.67 -1,-8 -1.67,-0.33 -6.33,5.17 -9,6 -2.67,0.83 -5.5,-3 -7,-1 -1.5,2 -0.5,10.17 -2,13 -1.5,2.83 -5.5,2.67 -7,4 -1.5,1.33 -3.246076,3.490778 -1.678429,5.849036 10.281016,15.466032 9.403303,16.132989 13.507819,-3.929428"
     fill="none"
     stroke="#000000"
     stroke-width="2.00"
     stroke-linecap="round"
     stroke-linejoin="round"
     id="path4"
     style="stroke-width:3;stroke-dasharray:none"
     sodipodi:nodetypes="cssssssssssssssc" />
  <path
     d="m 61.578841,127.68216 c 3.92062,0.39738 16.20593,3.80692 17.87593,2.13692 C 81.124771,128.14908 75.67,118.33 73,117 c -2.67,-1.33 -7.33,3.5 -10,3 -2.67,-0.5 -3.5,-5.5 -6,-6 -2.5,-0.5 -6.17,1.33 -9,3 -2.83,1.67 -8.33,4.67 -8,7 0.33,2.33 8,4.33 10,7 2,2.67 -0.5,8 2,9 2.5,1 9.33,-3.17 13,-3 3.67,0.17 6.17,4.83 9,4 2.83,-0.83 4.47228,-10.98754 7.772615,-10.5917 6.652488,0.7979 6.593677,0.96652 15.682156,3.13693"
     fill="none"
     stroke="#000000"
     stroke-width="2.00"
     stroke-linecap="round"
     stroke-linejoin="round"
     id="path5"
     style="stroke-width:3;stroke-dasharray:none"
     sodipodi:nodetypes="csssssssssssc" />
  <path
     d="m 96,362 c 2,-4.83 8.67,-19.17 12,-29 3.33,-9.83 6,-21.17 8,-30 2,-8.83 3,-12.83 4,-23 1,-10.17 2.17,-24.83 2,-38 -0.17,-13.17 -0.67,-27.17 -3,-41 -2.33,-13.83 -6.83,-29.67 -11,-42 -4.17,-12.33 -11.5,-29.67121 -15.1255,-36.18043"
     fill="none"
     stroke="#000000"
     stroke-width="4.00"
     stroke-linecap="round"
     stroke-linejoin="round"
     id="path6"
     style="stroke-width:3;stroke-dasharray:none"
     sodipodi:nodetypes="cssssssc" />
  <path
     d="m 9,85 c 1.67,-2.33 6.17,-12.17 10,-14 3.83,-1.83 9.83,3.5 13,3 3.17,-0.5 3.5,-6.67 6,-6 2.5,0.67 11.368072,10.965322 12.698072,13.135322 1.33,2.17 -12.843823,0.48175 -12.013823,1.31175 0.83,0.83 13.253001,-1.536679 12.753001,0.633321 C 50.93725,85.250393 46.33,92.67 43,94 39.67,95.33 35.17,90.83 32,91 28.83,91.17 27.83,96.17 24,95 20.17,93.83 11.5,85.83 9,84"
     fill="none"
     stroke="#000000"
     stroke-width="2.00"
     stroke-linecap="round"
     stroke-linejoin="round"
     id="path7"
     style="stroke-width:3;stroke-dasharray:none"
     sodipodi:nodetypes="csssssssssc" />
  <path
     d="m 99,94 v 3"
     fill="none"
     stroke="#000000"
     stroke-width="4.00"
     stroke-linecap="round"
     stroke-linejoin="round"
     id="path8"
     style="stroke-width:3;stroke-dasharray:none"
     sodipodi:nodetypes="cc" />
</svg>

<?xml version="1.0" encoding="UTF-8"?>
<svg xmlns="http://www.w3.org/2000/svg" viewBox="0 0 129 367" width="129" height="367">
  <path d="M19.00,24.00 C22.33,27.50 34.00,38.67 39.00,45.00 C44.00,51.33 46.33,58.50 49.00,62.00 C51.67,65.50 54.00,65.33 55.00,66.00" fill="none" stroke="black" stroke-width="4.47" stroke-linecap="round" stroke-linejoin="round"/>
  <path d="M5.00,33.00 C5.50,32.83 7.83,36.33 8.00,32.00 C8.17,27.67 5.17,10.67 6.00,7.00 C6.83,3.33 9.33,9.50 13.00,10.00 C16.67,10.50 24.83,8.33 28.00,10.00 C31.17,11.67 29.67,17.33 32.00,20.00 C34.33,22.67 40.50,22.33 42.00,26.00 C43.50,29.67 41.83,38.67 41.00,42.00 C40.17,45.33 37.33,45.33 37.00,46.00 C36.67,46.67 39.33,45.83 39.00,46.00 C38.67,46.17 38.67,46.67 35.00,47.00 C31.33,47.33 20.33,49.67 17.00,48.00 C13.67,46.33 16.00,39.50 15.00,37.00 C14.00,34.50 12.50,33.83 11.00,33.00 C9.50,32.17 6.83,32.17 6.00,32.00" fill="none" stroke="black" stroke-width="2.00" stroke-linecap="round" stroke-linejoin="round"/>
  <path d="M59.00,56.00 C59.17,56.83 60.83,59.50 60.00,61.00 C59.17,62.50 53.00,61.67 54.00,65.00 C55.00,68.33 66.33,78.00 66.00,81.00 C65.67,84.00 54.33,82.67 52.00,83.00" fill="none" stroke="black" stroke-width="5.06" stroke-linecap="round" stroke-linejoin="round"/>
  <path d="M66.00,81.00 C70.33,87.50 87.00,114.17 92.00,120.00 C97.00,125.83 94.83,119.83 96.00,116.00 C97.17,112.17 97.83,100.00 99.00,97.00 C100.17,94.00 101.00,98.33 103.00,98.00 C105.00,97.67 109.33,95.83 111.00,95.00 C112.67,94.17 112.50,95.50 113.00,93.00 C113.50,90.50 112.17,83.50 114.00,80.00 C115.83,76.50 123.50,74.67 124.00,72.00 C124.50,69.33 118.33,66.67 117.00,64.00 C115.67,61.33 117.67,56.33 116.00,56.00 C114.33,55.67 109.67,61.17 107.00,62.00 C104.33,62.83 101.50,59.00 100.00,61.00 C98.50,63.00 99.50,71.17 98.00,74.00 C96.50,76.83 92.50,76.67 91.00,78.00 C89.50,79.33 87.67,79.50 89.00,82.00 C90.33,84.50 96.33,93.33 99.00,93.00 C101.67,92.67 104.00,82.17 105.00,80.00" fill="none" stroke="black" stroke-width="2.00" stroke-linecap="round" stroke-linejoin="round"/>
  <path d="M63.00,127.00 C65.67,127.17 77.33,129.67 79.00,128.00 C80.67,126.33 75.67,118.33 73.00,117.00 C70.33,115.67 65.67,120.50 63.00,120.00 C60.33,119.50 59.50,114.50 57.00,114.00 C54.50,113.50 50.83,115.33 48.00,117.00 C45.17,118.67 39.67,121.67 40.00,124.00 C40.33,126.33 48.00,128.33 50.00,131.00 C52.00,133.67 49.50,139.00 52.00,140.00 C54.50,141.00 61.33,136.83 65.00,137.00 C68.67,137.17 71.17,141.83 74.00,141.00 C76.83,140.17 78.83,133.00 82.00,132.00 C85.17,131.00 90.50,134.67 93.00,135.00 C95.50,135.33 96.33,134.17 97.00,134.00" fill="none" stroke="black" stroke-width="2.00" stroke-linecap="round" stroke-linejoin="round"/>
  <path d="M96.00,362.00 C98.00,357.17 104.67,342.83 108.00,333.00 C111.33,323.17 114.00,311.83 116.00,303.00 C118.00,294.17 119.00,290.17 120.00,280.00 C121.00,269.83 122.17,255.17 122.00,242.00 C121.83,228.83 121.33,214.83 119.00,201.00 C116.67,187.17 112.17,171.33 108.00,159.00 C103.83,146.67 96.50,133.67 94.00,127.00 C91.50,120.33 93.17,120.33 93.00,119.00" fill="none" stroke="black" stroke-width="4.00" stroke-linecap="round" stroke-linejoin="round"/>
  <path d="M9.00,85.00 C10.67,82.67 15.17,72.83 19.00,71.00 C22.83,69.17 28.83,74.50 32.00,74.00 C35.17,73.50 35.50,67.33 38.00,68.00 C40.50,68.67 45.67,75.83 47.00,78.00 C48.33,80.17 45.17,80.17 46.00,81.00 C46.83,81.83 52.50,80.83 52.00,83.00 C51.50,85.17 46.33,92.67 43.00,94.00 C39.67,95.33 35.17,90.83 32.00,91.00 C28.83,91.17 27.83,96.17 24.00,95.00 C20.17,93.83 11.50,85.83 9.00,84.00" fill="none" stroke="black" stroke-width="2.00" stroke-linecap="round" stroke-linejoin="round"/>
  <path d="M99.00,94.00 L99.00,97.00" fill="none" stroke="black" stroke-width="4.00" stroke-linecap="round" stroke-linejoin="round"/>
  <path d="M79.00,128.00 L82.00,132.00" fill="none" stroke="black" stroke-width="4.47" stroke-linecap="round" stroke-linejoin="round"/>
</svg>
